brandFactory_export/1.Light/Tiempo _1Light.svg

<?xml version="1.0" encoding="UTF-8"?>
<svg width="24px" height="24px" viewBox="0 0 24 24" version="1.1" xmlns="http://www.w3.org/2000/svg" xmlns:xlink="http://www.w3.org/1999/xlink">
    <title>1.Light/Tiempo _1Light</title>
    <g id="Symbols" stroke="none" stroke-width="1" fill="none" fill-rule="evenodd">
        <g id="1.Light/Tiempo-_1Light" fill="#5CB615" fill-rule="nonzero">
            <path d="M11.8084034,22.6386555 C18.994958,22.6386555 22.6386555,18.9983193 22.6386555,11.8151261 C22.6386555,4.62857143 18.994958,0.98487395 11.8084034,0.98487395 C4.62521008,0.98487395 0.98487395,4.62857143 0.98487395,11.8151261 C0.98487395,18.9983193 4.62521008,22.6386555 11.8084034,22.6386555 Z M11.8084034,0 C19.2705882,0 23.6235294,3.76806723 23.6235294,11.8151261 C23.6235294,19.8621849 19.2705882,23.6235294 11.8084034,23.6235294 C4.34621849,23.6235294 0,19.8621849 0,11.8151261 C0,3.76806723 4.34621849,0 11.8084034,0 Z M12.3058824,11.9327731 L15.794958,15.4252101 C15.9831933,15.6201681 15.9798319,15.9327731 15.7815126,16.1210084 C15.589916,16.3058824 15.287395,16.3058824 15.0991597,16.1210084 L11.4621849,12.487395 C11.3714286,12.3932773 11.3176471,12.2689076 11.3176471,12.1378151 L11.3176471,7.21680672 C11.3176471,6.94453782 11.5394958,6.72605042 11.8084034,6.72605042 C12.0773109,6.72605042 12.2991597,6.94789916 12.2991597,7.21680672 L12.3058824,11.9327731 Z" id="Tiempo-_1Light"></path>
        </g>
    </g>
</svg>

<svg width="24" height="24" viewBox="0 0 24 24" xmlns="http://www.w3.org/2000/svg"><path d="M11.808 22.639c7.187 0 10.83-3.64 10.83-10.824 0-7.186-3.643-10.83-10.83-10.83C4.625.985.985 4.629.985 11.815c0 7.183 3.64 10.824 10.823 10.824zm0-22.639c7.463 0 11.816 3.768 11.816 11.815S19.27 23.624 11.808 23.624C4.346 23.624 0 19.862 0 11.815 0 3.768 4.346 0 11.808 0zm.498 11.933l3.489 3.492a.49.49 0 01-.013.696.49.49 0 01-.683 0l-3.637-3.634a.505.505 0 01-.144-.35v-4.92a.491.491 0 01.981 0l.007 4.716z" fill="#5CB615" fill-rule="nonzero"/></svg>
